X:1
T:Title
%%score { ( 1 3 ) | ( 2 4 ) }
L:1/8
M:4/4
K:G
V:1 treble nm="Grand Piano"
V:3 treble 
V:2 bass 
V:4 bass 
V:1
 z4 z2[Q:1/4=100] D>D | G>G G>G G2 E>D | G6 G>A | B>B B>B B2 A>G | [FA]6 [FA]>[GB] | %5
 [Fc]>[Fc] [Fc]>[Fc] [Fc]2 [GB]>[FA] | B>B B>[Ac] [Bd]2 [Bd]>B | A2 d>e d2 ^c2 |[M:3/4] [Fd]6 | %9
[M:1/4] [GB]>[Ac] |[M:4/4] [Bd]6 z2 | G6 z2 | [Ac]>[Ac] [Ac]>[Ac] [Ac]2 [GB]>[FA] | %13
[M:3/4] B>B B>[Ac] [Bd]2 |[M:1/4] B>c |[M:4/4] d6 z2 | c6[K:bass] z2 | D3 c B2 A2 | %18
[M:3/4] [B,G]6 |] %19
V:2
 z4 z2 [G,B,]>[G,B,] | [G,B,D]>[G,B,D] [G,B,D]>[G,B,D] [G,B,D]2 [G,C]>[G,B,] | %2
 [G,B,D]6 [G,B,D]>[G,CD] | [G,DG]>[G,DG] [G,DG]>[G,DG] [G,DG]2 [G,CF]>[K:bass][G,B,] | %4
 [D,D]6 [D,D]>[D,D] | [D,A,]>[D,A,] [D,A,]>[D,A,] [D,A,]2 [D,A,]>[D,D] | %6
 [G,DG]>[G,DG] [G,DG]>[G,D] [G,D]2 [G,D]>[G,DG] | [A,DF]2 [A,DF]>[A,DE] [A,EG]2 [A,EG]2 | %8
[M:3/4][K:bass] z2 D>E D>C |[M:1/4] B,>A, |[M:4/4] G,2 G,>G, G,2 D>C | B,6 z2 | %12
 [D,D]>[D,D] [D,D]>[D,D] [D,D]2 [D,D]>[D,D] |[M:3/4][K:treble] [G,DG]>[G,DG] [G,DG]>[G,C] [G,B,]2 | %14
[M:1/4] G>A |[M:4/4] B6 D>=F | E6[K:bass] z2 | [D,G,B,]3 [D,A,D] [D,G,D]2 [D,F,C]2 | %18
[M:3/4] [G,,G,]6 |] %19
V:3
 x8 | x8 | x8 | x8 | x8 | x8 | x8 | x8 |[M:3/4] D2 z2 z2 |[M:1/4] x2 |[M:4/4] z2 D>D D2 B>A | %11
 z2 G,>G, G,2 [A,FA]>[GB] | x8 |[M:3/4] x6 |[M:1/4] x2 |[M:4/4] z2 G,>G, G,2 B>G | %16
 z2[K:bass] G,>G, G,2 E>E | x8 |[M:3/4] x6 |] %19
V:4
 x8 | x8 | x8 | x15/2[K:bass] x/ | x8 | x8 | x8 | x8 |[M:3/4][K:bass] D,6 |[M:1/4] x2 |[M:4/4] x8 | %11
 z2 G,,>G,, G,,2 D,>[D,A,] | x8 |[M:3/4][K:treble] x6 |[M:1/4] x2 |[M:4/4] x8 | %16
 z2[K:bass] C,>C, C,2 [C,G,C]>[C,G,C] | x8 |[M:3/4] x6 |] %19

